X:9
T:No.9 The Wild Irishman
C:reel
M:4/4
L:1/8
K:D
edcB ABcd|eA (3cBA cdef|edcB Aceg|fage dcdf|
edcB ABcd|eA (3AAA eAfA|edcB Aceg|faec dAFA|
d2 fa gefd|Adfd Acec|d2 fa gefd|faec dAFA|
defa gefd|Adfd Acec|defd efgb|afge dcdf||
